build/img/icon-arrow.svg

<svg width="56" height="12" viewBox="0 0 56 12" fill="none" xmlns="http://www.w3.org/2000/svg">
<path d="M48.2817 11.6941C47.851 11.3059 47.851 10.6903 48.2817 10.3021L52.0707 7.00092L1.15068 7.00092C0.515168 7.00092 0 6.55236 0 5.99902C0 5.44567 0.515168 4.99712 1.15068 4.99712L52.0708 4.99712L48.2817 1.69789C47.8402 1.29988 47.8528 0.665644 48.3099 0.281251C48.7558 -0.0937502 49.4627 -0.0937502 49.9087 0.281251L55.662 5.29064C56.1119 5.68143 56.1128 6.31578 55.664 6.70752L55.662 6.70934L49.9087 11.7187C49.4515 12.1032 48.7231 12.0921 48.2817 11.6941Z" fill="white"/>
</svg>

<svg width="56" height="12" fill="none" xmlns="http://www.w3.org/2000/svg"><path d="M48.282 11.694a.911.911 0 010-1.392l3.789-3.301H1.15C.515 7 0 6.552 0 5.999c0-.553.515-1.002 1.15-1.002h50.92l-3.788-3.3c-.442-.397-.43-1.031.028-1.416a1.277 1.277 0 011.599 0l5.753 5.01c.45.39.45 1.025.002 1.417l-.002.001-5.753 5.01c-.457.384-1.186.373-1.627-.025z" fill="#fff"/></svg>
